X:99
T:B099-  The Dame of Honour
Q:1/4=120
L:1/4
M:6/4
K:D
D|F2Ad2f|d2AF2c|(BA)FF2A|F(D2D2)D|\
(FG)A(Bc)d|(ef) (e/2d/2)c2e|(ef)e(Bc)d|c(A2A2)e|\
a2gf2e|d2cB2f|g2fB2e|c(A2A2)A|\
(FG)A(Bc)d|(ef) (e/2d/2)c2e|f3/2g/2aA2f|d(d2d2)|]
